X:545
T:Reel 545
M:4/4
K:Gmaj
L:1/8
ADDC  (3EDE CE|ADDD CDEG|ADDE cEAD|cAdc BGGB|ADDE FEFG|AdBA AGEGDG|EDEG ABcd|edcB AcBG|A|dedB cAAB|c2eA gedc|AcdG AEED|cdef gedB|A2Ac AGGE|ADGE cdeg|cege  (3def eg|aggB A2dc|
